images/smedia/fb.svg

<svg width="50" height="50" viewBox="0 0 50 50" fill="none" xmlns="http://www.w3.org/2000/svg">
<circle cx="25" cy="25" r="24" fill="#ECF6FF" stroke="#101C5B"/>
<path d="M32.3775 26.6066L33.2519 21.2516H28.0056V17.5032C28.0056 16.0038 28.5521 14.8257 30.9566 14.8257H33.4705V9.8991C32.0496 9.6849 30.5194 9.4707 29.0986 9.4707C24.6173 9.4707 21.4477 12.1482 21.4477 16.9677V21.2516H16.5293V26.6066H21.4477V40.5295C23.6337 40.5295 25.8196 40.5295 28.0056 40.5295V26.6066H32.3775Z" fill="#101C5B"/>
</svg>

<svg width="50" height="50" fill="none" xmlns="http://www.w3.org/2000/svg"><circle cx="25" cy="25" r="24" fill="#ECF6FF" stroke="#101C5B"/><path d="M32.377 26.607l.875-5.355h-5.246v-3.749c0-1.5.546-2.677 2.95-2.677h2.515V9.899c-1.421-.214-2.952-.428-4.372-.428-4.482 0-7.651 2.677-7.651 7.497v4.284h-4.919v5.355h4.919v13.922h6.558V26.607h4.371z" fill="#101C5B"/></svg>
